!!!SOCIAL_FUNCTION:	bird dance songs
!!!PDT:	1932
!!!OTL: No_99_Opening_Song_of_the_Dance.krn
!!!REG: Southwest
!!!LANG: Non-Tone
!!!LING_GROUP: Yuman-Cochimi
**kern	**kern
*staff2	*staff1
=1-	=1-
*clefF4	*clefF4
*k[b-]	*k[b-]
*M2/4	*M2/4
8GG/L	8r
8GG/J	16r
.	16D\
8GG/	8.D\L
16r	.
16GG/	16D\Jk
=2	=2
8GG/L	8.F\L
8GG/J	.
.	16F\Jk
8GG/	4F\
16r	.
16GG/	.
=3	=3
2r	8.D\L
.	16F\Jk
.	8.F\L
.	16G\Jk
=4||	=4||
*M3/4	*M3/4
2.r	8.F\L
.	16F\Jk
.	8F\L
.	8F\J
.	8r
.	16r
.	16F\
=5||	=5||
*M2/4	*M2/4
2r	8.F\L
.	16G\Jk
.	4G\
=6	=6
2r	8.G\L
.	16D\Jk
.	8F\
.	8r
=7||	=7||
*M3/4	*M3/4
2.r	8.G\L
.	16F\Jk
.	8.F\L
.	16D\Jk
.	8F\L
.	8F\J
=8||	=8||
*M2/4	*M2/4
2r	8.D\L
.	16F\Jk
.	8.F\L
.	16G\Jk
=9	=9
2r	8.F\L
.	16F\Jk
.	4F\
=10	=10
2r	4r
.	8.D\L
.	16D\Jk
=11!|:	=11!|:
2r	8.F\L
.	16F\Jk
.	4F\
=12	=12
2r	8.D\L
.	16F\Jk
.	8.F\L
.	16G\Jk
=13||	=13||
*M3/4	*M3/4
2.r	8.F\L
.	16F\Jk
.	8F\L
.	8F\J
.	8r
.	16r
.	16F\
=14||	=14||
*M2/4	*M2/4
2r	8.F\L
.	16D\Jk
.	4G\
=15	=15
2r	8.G\L
.	16D\Jk
.	8.F\L
.	16G\Jk
=16||	=16||
*M3/4	*M3/4
2.r	8.G\L
.	16F\Jk
.	8.F\L
.	16D\Jk
.	8F\L
.	8F\J
=17||	=17||
*M2/4	*M2/4
2r	8.D\L
.	16F\Jk
.	8.F\L
.	16G\Jk
=18	=18
2r	4F\
.	4F\
=19	=19
2r	8.r
.	16D\
.	8.D\L
.	16D\Jk
=20:|!	=20:|!
2r	2r
=21	=21
2r	4r
.	8r
.	16r
.	16F\
=22	=22
2r	8.F\L
.	16D\Jk
.	4G\
=23	=23
2r	8.G\L
.	16F\Jk
.	8.G\L
.	16G\Jk
=24	=24
2r	8.G\L
.	16F\Jk
.	8.G\L
.	16A\Jk
=25	=25
2r	8.G\L
.	16D\Jk
.	8.F\L
.	16G\Jk
=26||	=26||
*M3/4	*M3/4
2.r	8.G\L
.	16F\Jk
.	8.F\L
.	16D\Jk
.	4F\
=27||	=27||
*M2/4	*M2/4
2r	8.D\L
.	16F\Jk
.	8.F\L
.	16G\Jk
=28||	=28||
*M3/4	*M3/4
2.r	4F\
.	4F\
.	8r
.	16r
.	16F\
=29||	=29||
*M2/4	*M2/4
2r	8.F\L
.	16D\Jk
.	4G\
=30	=30
2r	8.G\L
.	16D\Jk
.	8.F\L
.	16G\Jk
=31||	=31||
*M3/4	*M3/4
2.r	8.G\L
.	16F\Jk
.	8.F\L
.	16D\Jk
.	8F\L
.	8F\J
=32||	=32||
*M2/4	*M2/4
2r	8.D\L
.	16F\Jk
.	8.F\L
.	16G\Jk
=33	=33
2r	4F\
.	4F\
=34	=34
2r	8r
.	16r
.	16D\
.	8.D\L
.	16D\Jk
=35	=35
2r	8.F\L
.	16F\Jk
.	4F\
=36	=36
2r	8.D\L
.	16F\Jk
.	8.F\L
.	16G\Jk
=37||	=37||
*M3/4	*M3/4
2.r	8.F\L
.	16F\Jk
.	8F\L
.	8F\J
.	8r
.	16r
.	16F\
=38||	=38||
*M2/4	*M2/4
2r	8.F\L
.	16D\Jk
.	4G\
=39	=39
2r	8.G\L
.	16D\Jk
.	8.F\L
.	16G\Jk
=40||	=40||
*M3/4	*M3/4
2.r	8.G\L
.	16F\Jk
.	8.F\L
.	16D\Jk
.	8F\L
.	8F\J
=41||	=41||
*M2/4	*M2/4
2r	8.D\L
.	16F\Jk
.	8.F\L
.	16G\Jk
=42	=42
2r	4F\
.	4F\
==	==
*-	*-
